!! 00000] TT[00
!! NN
!!!OTL: Tugai bachu xi
!!!ARE: Asia, China,ÿHeilongjiang, Hailun
!! Ethnic Group: Han
!! III, 24
!!!SCT: C0275
!!!YEM: Copyright 1995, estate of Helmut Schaffrath.
**kern
*ICvox
*Ivox
*M4/4
*k[f#]
*G:
{8r
16b
16dd
8b
8b
16dd
16b
16a
16f#
16e
16d
8B
=1
16b
16dd
16ee
16gg
16ee
16dd
8b
16a
16b
8g
8f#
8e}
=2
{8r
8e
8b
8b
4a
8f#
8e
=3
8r
8dd
8dd
8b
16a
16b
8g
16a
16f#
8e}
=4
{8r
8b
8b
8b
8g
8b
4a
=5
8r
8b
8b
8dd
16B
16d
16B
16d
4e}
=6
{8b
8b
8dd
16b
16a
8g
8b
4a}
=7
{8.b
16a
8b
8a
16b
16a
8b
4a}
=8
{8g
4g
8a
8g
8d
4e}
=9
{8.dd
16b
16a
16b
8dd
16b
16dd
16b
16a
8f#
8e
=10
8d
4d
16e
16g
2d}
==
!!!AGN: Xiaodiao, Bazhuxi diao. Geming lishi minge
!! 1. Takt: rhythmische Form ist im Sueden selten zu finden, aber oft
!!    im Norden. Wird auftaktig aufgefasst. Nach einer Textfrage wird die
!!    Melodie erweitert- Im Nordosten ist diese Melodie sehr bekannt und
!!    wird auch zum Tanz gesungen. Das Lied wird als "prosaisch" bezeichnet,
!!    weil es wie die deutschen Volkslieder sich durch Syllabik und
!!    kleinen Tonvorrat auszeichnet. Das Modell wird in der Kunst von
!!    Gesang und Sprache mit Kuaiban begleitet.
!!!ONB: ESAC (Essen Associative Code) Database: CHINA
!!!AMT: simple quadruple
!!!AIN: vox
!!!EED: Helmut Schaffrath
!!!EEV: 1.0
*-
